imgs/padlock.svg

<svg width="61" height="61" viewBox="0 0 61 61" fill="none" xmlns="http://www.w3.org/2000/svg">
<path d="M61 0C61 8.01063 59.4222 15.9428 56.3567 23.3437C53.2911 30.7446 48.7979 37.4691 43.1335 43.1335C37.4691 48.7979 30.7446 53.2911 23.3437 56.3567C15.9428 59.4222 8.01063 61 0 61L3.8147e-06 27.047C3.55186 27.047 7.06893 26.3474 10.3504 24.9881C13.6319 23.6289 16.6135 21.6366 19.1251 19.1251C21.6366 16.6135 23.6289 13.6319 24.9881 10.3504C26.3474 7.06893 27.047 3.55186 27.047 0H61Z" fill="#FFEDF2"/>
<path d="M55 40.0007V44.0007C55 52.2717 48.271 59.0007 40 59.0007C31.729 59.0007 25 52.2717 25 44.0007V40.0007H23V44.0007C23 53.3747 30.626 61.0007 40 61.0007C49.374 61.0007 57 53.3747 57 44.0007V40.0007H55Z" fill="#FF91AF"/>
<path d="M60.8999 21.5658C60.7779 21.3128 60.5559 21.1237 60.2869 21.0427L40.2869 15.0428C40.0989 14.9858 39.8999 14.9858 39.7129 15.0428L19.7129 21.0427C19.4429 21.1237 19.2219 21.3128 19.0999 21.5658C18.9779 21.8187 18.9669 22.1108 19.0709 22.3718L22.9999 32.1927V38.0007H56.9999V32.1927L60.9289 22.3718C61.0329 22.1108 61.0219 21.8187 60.8999 21.5658ZM39.9999 34.0007C37.7909 34.0007 35.9999 32.2097 35.9999 30.0007C35.9999 27.7917 37.7909 26.0007 39.9999 26.0007C42.2089 26.0007 43.9999 27.7917 43.9999 30.0007C43.9999 32.2097 42.2089 34.0007 39.9999 34.0007Z" fill="#FD3E72"/>
</svg>

<svg width="61" height="61" fill="none" xmlns="http://www.w3.org/2000/svg"><path d="M61 0A61 61 0 010 61V27.047A27.046 27.046 0 0027.047 0H61z" fill="#FFEDF2"/><path d="M55 40v4c0 8.272-6.729 15-15 15s-15-6.728-15-15v-4h-2v4c0 9.375 7.626 17 17 17 9.374 0 17-7.625 17-17v-4h-2z" fill="#FF91AF"/><path d="M60.9 21.566a1 1 0 00-.613-.523l-20-6a.985.985 0 00-.574 0l-20 6a1.001 1.001 0 00-.642 1.33L23 32.192V38h34v-5.808l3.929-9.821a1.001 1.001 0 00-.03-.806zM40 34a4 4 0 110-8 4 4 0 010 8z" fill="#FD3E72"/></svg>
